packages/icons/src/gitops-blue-circle.svg

<svg fill="none" viewBox="0 0 19 18" xmlns="http://www.w3.org/2000/svg"><circle cx="10" cy="9" fill="#00ade4" r="9"/><path clip-rule="evenodd" d="m9.55927 5.78943c.11329-.04802.23787-.07458.36867-.07458.52206 0 .94536.42323.94536.94531 0 .13079-.0266.25538-.0746.36867l1.0745 1.0745c.1364-.07637.2937-.11991.4611-.11991.5221 0 .9453.42323.9453.94531s-.4232.94532-.9453.94532-.9453-.42324-.9453-.94532c0-.16727.0434-.32439.1197-.4607l-1.0356-1.03552c-.0862.06099-.1831.1079-.2873.13738v2.85551c.3967.1123.6875.4771.6875.9098-.0001.522-.4233.9453-.94536.9453-.52208 0-.94532-.4233-.94532-.9453 0-.4327.29073-.7975.68751-.9098v-2.85551c-.39678-.11222-.68751-.47703-.68751-.90973 0-.20305.06402-.39114.17297-.5452l-1.13853-1.13853-1.65952.95441c-.53499.30768-.86669.8744-.87202 1.48985l-.02647 3.06021c-.00546.6313.33318 1.2158.88455 1.5269l2.6727 1.5079c.53752.3032 1.196.3005 1.7309-.0072l2.7507-1.5819c.535-.3077.8667-.8744.872-1.4899l.0265-3.06014c.0055-.63131-.3332-1.21588-.8845-1.52695l-2.6727-1.50785c-.5376-.30326-1.19598-.30054-1.73097.00713l-.62821.36129zm-.06102.87073c0-.23731.19238-.42969.42969-.42969.23726 0 .42966.19238.42966.42969s-.1924.42969-.42966.42969c-.23731 0-.42969-.19238-.42969-.42969zm0 4.67504c0-.2374.19238-.4297.42969-.4297.23726 0 .42966.1923.42966.4297 0 .2373-.1924.4296-.42966.4296-.23731 0-.42969-.1923-.42969-.4296zm2.83605-2.83615c-.2373 0-.4297.19237-.4297.42968s.1924.42969.4297.42969.4297-.19238.4297-.42969-.1924-.42968-.4297-.42968z" fill="#fcfeff" fill-rule="evenodd"/></svg>

<svg viewBox="0 0 19 18" fill="none" xmlns="http://www.w3.org/2000/svg">
<circle cx="10" cy="9" r="9" fill="#00ADE4"/>
<path fill-rule="evenodd" clip-rule="evenodd" d="M9.55927 5.78943C9.67256 5.74141 9.79714 5.71485 9.92794 5.71485C10.45 5.71485 10.8733 6.13808 10.8733 6.66016C10.8733 6.79095 10.8467 6.91554 10.7987 7.02883L11.8732 8.10333C12.0096 8.02696 12.1669 7.98342 12.3343 7.98342C12.8564 7.98342 13.2796 8.40665 13.2796 8.92873C13.2796 9.45081 12.8564 9.87405 12.3343 9.87405C11.8122 9.87405 11.389 9.45081 11.389 8.92873C11.389 8.76146 11.4324 8.60434 11.5087 8.46803L10.4731 7.43251C10.3869 7.4935 10.29 7.54041 10.1858 7.56989V10.4254C10.5825 10.5377 10.8733 10.9025 10.8733 11.3352C10.8732 11.8572 10.45 12.2805 9.92794 12.2805C9.40586 12.2805 8.98262 11.8572 8.98262 11.3352C8.98262 10.9025 9.27335 10.5377 9.67013 10.4254V7.56989C9.27335 7.45767 8.98262 7.09286 8.98262 6.66016C8.98262 6.45711 9.04664 6.26902 9.15559 6.11496L8.01706 4.97643L6.35754 5.93084C5.82255 6.23852 5.49085 6.80524 5.48552 7.42069L5.45905 10.4809C5.45359 11.1122 5.79223 11.6967 6.3436 12.0078L9.0163 13.5157C9.55382 13.8189 10.2123 13.8162 10.7472 13.5085L13.4979 11.9266C14.0329 11.6189 14.3646 11.0522 14.3699 10.4367L14.3964 7.37656C14.4019 6.74525 14.0632 6.16068 13.5119 5.84961L10.8392 4.34176C10.3016 4.0385 9.64322 4.04122 9.10823 4.34889L8.48002 4.71018L9.55927 5.78943ZM9.49825 6.66016C9.49825 6.42285 9.69063 6.23047 9.92794 6.23047C10.1652 6.23047 10.3576 6.42285 10.3576 6.66016C10.3576 6.89747 10.1652 7.08985 9.92794 7.08985C9.69063 7.08985 9.49825 6.89747 9.49825 6.66016ZM9.49825 11.3352C9.49825 11.0978 9.69063 10.9055 9.92794 10.9055C10.1652 10.9055 10.3576 11.0978 10.3576 11.3352C10.3576 11.5725 10.1652 11.7648 9.92794 11.7648C9.69063 11.7648 9.49825 11.5725 9.49825 11.3352ZM12.3343 8.49905C12.097 8.49905 11.9046 8.69142 11.9046 8.92873C11.9046 9.16604 12.097 9.35842 12.3343 9.35842C12.5716 9.35842 12.764 9.16604 12.764 8.92873C12.764 8.69142 12.5716 8.49905 12.3343 8.49905Z" fill="#FCFEFF"/>
</svg>
